X:5944
T:Gan ainm
R:Hornpipe
S:
H:
N:
D:Milltown Malbay Concertina Recital
Z:Adrian Scahill
M:4/4
L:1/8
K:A
A2 (3cBA EAce|a2ga faec|d2(3fed c2ec|BEGB edcB|\
A2 (3cBA EAce|a2ga faec|d2(3fed c2ec|1 BEGB A3E:|2 BEGB A2fg||\
ace^e fAdf|fecA BEGB|Acec dfba|gbfb e2 (3efg|\
acea fAdf|fecA BEGB|Acec dfba|(3gfe (3dcB A2fg:||\
